packages/assets/static/images/icons/fire-truck.svg

<svg width="24" height="24" viewBox="0 0 24 24" xmlns="http://www.w3.org/2000/svg">
<path d="M23.1966 9.84082L21.8841 6.55957C21.7727 6.2818 21.5804 6.04391 21.3321 5.87674C21.0839 5.70958 20.7912 5.62085 20.4919 5.62207H17.25V4.87207C17.25 4.67316 17.171 4.48239 17.0303 4.34174C16.8897 4.20109 16.6989 4.12207 16.5 4.12207C16.3011 4.12207 16.1103 4.20109 15.9697 4.34174C15.829 4.48239 15.75 4.67316 15.75 4.87207V14.2761C15.4051 14.4755 15.1032 14.7413 14.8619 15.0582C14.6205 15.375 14.4444 15.7366 14.3438 16.1221H9.65625C9.49102 15.4768 9.11573 14.9048 8.58952 14.4963C8.06331 14.0879 7.41613 13.8662 6.75 13.8662C6.08387 13.8662 5.43669 14.0879 4.91048 14.4963C4.38428 14.9048 4.00898 15.4768 3.84375 16.1221H2.25V11.6221C2.25 11.4232 2.17098 11.2324 2.03033 11.0917C1.88968 10.9511 1.69891 10.8721 1.5 10.8721C1.30109 10.8721 1.11032 10.9511 0.96967 11.0917C0.829018 11.2324 0.75 11.4232 0.75 11.6221V16.1221C0.75 16.5199 0.908035 16.9014 1.18934 17.1827C1.47064 17.464 1.85218 17.6221 2.25 17.6221H3.84375C4.00898 18.2674 4.38428 18.8393 4.91048 19.2478C5.43669 19.6563 6.08387 19.878 6.75 19.878C7.41613 19.878 8.06331 19.6563 8.58952 19.2478C9.11573 18.8393 9.49102 18.2674 9.65625 17.6221H14.3438C14.509 18.2674 14.8843 18.8393 15.4105 19.2478C15.9367 19.6563 16.5839 19.878 17.25 19.878C17.9161 19.878 18.5633 19.6563 19.0895 19.2478C19.6157 18.8393 19.991 18.2674 20.1563 17.6221H21.75C22.1478 17.6221 22.5294 17.464 22.8107 17.1827C23.092 16.9014 23.25 16.5199 23.25 16.1221V10.1221C23.2506 10.0257 23.2325 9.93022 23.1966 9.84082ZM20.4919 7.12207L21.3919 9.37207H17.25V7.12207H20.4919ZM6.75 18.3721C6.45333 18.3721 6.16332 18.2841 5.91665 18.1193C5.66997 17.9545 5.47771 17.7202 5.36418 17.4461C5.25065 17.172 5.22094 16.8704 5.27882 16.5794C5.3367 16.2885 5.47956 16.0212 5.68934 15.8114C5.89912 15.6016 6.16639 15.4588 6.45737 15.4009C6.74834 15.343 7.04994 15.3727 7.32403 15.4863C7.59811 15.5998 7.83238 15.792 7.9972 16.0387C8.16203 16.2854 8.25 16.5754 8.25 16.8721C8.25 17.2699 8.09197 17.6514 7.81066 17.9327C7.52936 18.214 7.14783 18.3721 6.75 18.3721ZM17.25 18.3721C16.9533 18.3721 16.6633 18.2841 16.4166 18.1193C16.17 17.9545 15.9777 17.7202 15.8642 17.4461C15.7507 17.172 15.7209 16.8704 15.7788 16.5794C15.8367 16.2885 15.9796 16.0212 16.1893 15.8114C16.3991 15.6016 16.6664 15.4588 16.9574 15.4009C17.2483 15.343 17.5499 15.3727 17.824 15.4863C18.0981 15.5998 18.3324 15.792 18.4972 16.0387C18.662 16.2854 18.75 16.5754 18.75 16.8721C18.75 17.2699 18.592 17.6514 18.3107 17.9327C18.0294 18.214 17.6478 18.3721 17.25 18.3721ZM20.1563 16.1221C19.989 15.4783 19.613 14.9082 19.0871 14.5011C18.5612 14.0939 17.9151 13.8727 17.25 13.8721V10.8721H21.75V16.1221H20.1563ZM1.5 7.87207C1.30109 7.87207 1.11032 7.95109 0.96967 8.09174C0.829018 8.23239 0.75 8.42316 0.75 8.62207C0.75 8.82098 0.829018 9.01175 0.96967 9.1524C1.11032 9.29305 1.30109 9.37207 1.5 9.37207H13.5C13.6989 9.37207 13.8897 9.29305 14.0303 9.1524C14.171 9.01175 14.25 8.82098 14.25 8.62207C14.25 8.42316 14.171 8.23239 14.0303 8.09174C13.8897 7.95109 13.6989 7.87207 13.5 7.87207H12V5.62207H13.5C13.6989 5.62207 13.8897 5.54305 14.0303 5.4024C14.171 5.26175 14.25 5.07098 14.25 4.87207C14.25 4.67316 14.171 4.48239 14.0303 4.34174C13.8897 4.20109 13.6989 4.12207 13.5 4.12207H1.5C1.30109 4.12207 1.11032 4.20109 0.96967 4.34174C0.829018 4.48239 0.75 4.67316 0.75 4.87207C0.75 5.07098 0.829018 5.26175 0.96967 5.4024C1.11032 5.54305 1.30109 5.62207 1.5 5.62207H3V7.87207H1.5ZM10.5 7.87207H8.25V5.62207H10.5V7.87207ZM4.5 5.62207H6.75V7.87207H4.5V5.62207Z"/>
</svg>

<svg viewBox="0 0 24 24" xmlns="http://www.w3.org/2000/svg" aria-hidden="true" fill="currentColor"><path d="m23.197 9.84-1.313-3.28a1.49 1.49 0 0 0-1.392-.938H17.25v-.75a.75.75 0 1 0-1.5 0v9.404a3 3 0 0 0-1.406 1.846H9.656a3 3 0 0 0-5.812 0H2.25v-4.5a.75.75 0 0 0-1.5 0v4.5a1.5 1.5 0 0 0 1.5 1.5h1.594a3 3 0 0 0 5.812 0h4.688a3 3 0 0 0 5.812 0h1.594a1.5 1.5 0 0 0 1.5-1.5v-6a.7.7 0 0 0-.053-.281m-2.705-2.718.9 2.25H17.25v-2.25zM6.75 18.372a1.5 1.5 0 1 1 0-3 1.5 1.5 0 0 1 0 3m10.5 0a1.5 1.5 0 1 1 0-3 1.5 1.5 0 0 1 0 3m2.906-2.25a3.006 3.006 0 0 0-2.906-2.25v-3h4.5v5.25zM1.5 7.872a.75.75 0 0 0 0 1.5h12a.75.75 0 1 0 0-1.5H12v-2.25h1.5a.75.75 0 1 0 0-1.5h-12a.75.75 0 0 0 0 1.5H3v2.25zm9 0H8.25v-2.25h2.25zm-6-2.25h2.25v2.25H4.5z"/></svg>
